outputs/icons/device/wifi_off_round.svg

<svg xmlns="http://www.w3.org/2000/svg" width="1200" height="1200" fill="none"><g clip-path="url(#a)"><path fill="#000" d="M1003 506.995c28 23 69 21 94.5-4.5 29.5-29.502 27.5-78.502-5-105.002-179.5-147-410-201.5-627.498-163l129.498 129.5c144.5-1.5 290 46 408.5 143.002m-113.5 91.5c-39-28.5-81.5-50-126-65l147.5 147.5c12-29 5-63.5-21.5-82.5m-192 213c-61-31.5-134-31.5-195.5 0-29.498 15.5-34.998 56-11.498 79.5l73.498 73.5c19.5 19.5 51 19.5 70.5 0l73.5-73.5c24.5-23.5 19.5-64-10.5-79.5m286.5 83.5L206.002 116.993c-19.5-19.5-51-19.5-70.5 0s-19.5 51 0 70.5l117 117.5c-50.5 25-99.5 55.5-144.5 92.5-32.5 26.5-34.5 75.5-5 105.002 25.5 25.5 66 28 93.5 5 50-41.002 105-73.002 162.5-96.502l111.5 111.502c-56.5 15-110.5 40-159.5 75.5-34.5 25-36.5 75.5-6.5 105.5l.5.5c24.5 24.5 63 27 91.5 6.5 59.5-42 128.998-63 198.498-64.5l318.5 318.5c19.5 19.5 51 19.5 70.5 0 19.5-18.5 19.5-50 0-69.5"/></g><defs><clipPath id="a"><path fill="#fff" d="M0 0h1200v1200H0z"/></clipPath></defs></svg>

<svg width="1200" height="1200" viewBox="0 0 1200 1200" fill="none" xmlns="http://www.w3.org/2000/svg"><g clip-path="url(#clip0_238_2785)"><path d="M1003 506.995C1031 529.995 1072 527.995 1097.5 502.495C1127 472.993 1125 423.993 1092.5 397.493C913 250.493 682.5 195.993 465.002 234.493L594.5 363.993C739 362.493 884.5 409.993 1003 506.995ZM889.5 598.495C850.5 569.995 808 548.495 763.5 533.495L911 680.995C923 651.995 916 617.495 889.5 598.495ZM697.5 811.495C636.5 779.995 563.5 779.995 502 811.495C472.502 826.995 467.002 867.495 490.502 890.995L564 964.495C583.5 983.995 615 983.995 634.5 964.495L708 890.995C732.5 867.495 727.5 826.995 697.5 811.495ZM984 894.995L206.002 116.993C186.502 97.493 155.002 97.493 135.502 116.993C116.002 136.493 116.002 167.993 135.502 187.493L252.502 304.993C202.002 329.993 153.002 360.493 108.002 397.493C75.502 423.993 73.502 472.993 103.002 502.495C128.502 527.995 169.002 530.495 196.502 507.495C246.502 466.493 301.502 434.493 359.002 410.993L470.502 522.495C414.002 537.495 360.002 562.495 311.002 597.995C276.502 622.995 274.502 673.495 304.502 703.495L305.002 703.995C329.502 728.495 368.002 730.995 396.502 710.495C456.002 668.495 525.5 647.495 595 645.995L913.5 964.495C933 983.995 964.5 983.995 984 964.495C1003.5 945.995 1003.5 914.495 984 894.995Z" fill="black"/></g><defs><clipPath id="clip0_238_2785"><path width="24" fill="white" d="M0 0H1200V1200H0V0z"/></clipPath></defs></svg>
